lib/image/kuda.svg

<?xml version="1.0" encoding="UTF-8" standalone="no"?>
<svg
   version="1.1"
   id="svg2953"
   sodipodi:docname="kuda.svg"
   width="204.545"
   height="204.545"
   inkscape:version="1.2.2 (b0a8486541, 2022-12-01)"
   inkscape:export-filename="kuda.png"
   inkscape:export-xdpi="96"
   inkscape:export-ydpi="96"
   xmlns:inkscape="http://www.inkscape.org/namespaces/inkscape"
   xmlns:sodipodi="http://sodipodi.sourceforge.net/DTD/sodipodi-0.dtd"
   xmlns="http://www.w3.org/2000/svg"
   xmlns:svg="http://www.w3.org/2000/svg">
  <sodipodi:namedview
     id="namedview2955"
     pagecolor="#ffffff"
     bordercolor="#000000"
     borderopacity="0.25"
     inkscape:showpageshadow="2"
     inkscape:pageopacity="0.0"
     inkscape:pagecheckerboard="0"
     inkscape:deskcolor="#d1d1d1"
     showgrid="false"
     inkscape:zoom="4.3466667"
     inkscape:cx="92.944785"
     inkscape:cy="75.115031"
     inkscape:window-width="1920"
     inkscape:window-height="1056"
     inkscape:window-x="0"
     inkscape:window-y="0"
     inkscape:window-maximized="1"
     inkscape:current-layer="svg2953" />
  <defs
     id="defs2947" />
  <g
     id="g2951"
     transform="matrix(3.4090909,0,0,3.4090909,102.2725,88.636135)"
     style="fill:#ffffff;fill-opacity:1">
    <path
       stroke="none"
       fill="#ffffff"
       d="m -17,17.45 h 0.05 q 0.15,-1.3 1.1,-2.3 1.15,-1.1 2.7,-1.15 1.75,-3.95 7.25,-8.25 3.85,-3.1 7.55,-10.35 L 1.75,-6.1 0.9,-5.85 1,-6 q -7.55,6.5 -13.5,5.95 -3.3,-0.25 -4.4,-3.45 l -0.1,-0.7 0.2,-0.65 8.65,-14.3 -2.25,-2.2 q -0.45,-0.45 -0.45,-1.1 0,-0.65 0.45,-1.1 Q -9.95,-24 -9.3,-24 H 3.05 3.15 Q 16.3,-23.45 17,-10.25 V 2.1 2.25 q -0.9,7.5 -3.05,11.85 1.05,0.25 1.85,1.05 1,1 1.2,2.3 V 21 H -17 V 17.45 M 18,32 h -36 q -1.65,0 -2.85,-1.2 Q -22,29.65 -22,28 v -2.55 h 0.05 q 0.15,-1.3 1.1,-2.3 l 0.2,-0.15 h 41.3 l 0.15,0.15 q 1,1 1.2,2.3 V 28 q 0,1.65 -1.2,2.8 Q 19.65,32 18,32"
       id="path2949"
       style="fill:#ffffff;fill-opacity:1" />
  </g>
</svg>

<svg xmlns="http://www.w3.org/2000/svg" xmlns:xlink="http://www.w3.org/1999/xlink">
  <defs/>
  <g>
    <path stroke="none" fill="#FFFFFF" d="M-17 17.45 L-16.95 17.45 Q-16.8 16.15 -15.85 15.15 -14.7 14.05 -13.15 14 -11.4 10.05 -5.9 5.75 -2.05 2.65 1.65 -4.6 L1.75 -6.1 0.9 -5.85 1 -6 Q-6.55 0.5 -12.5 -0.05 -15.8 -0.3 -16.9 -3.5 L-17 -4.2 -16.8 -4.85 -8.15 -19.15 -10.4 -21.35 Q-10.85 -21.8 -10.85 -22.45 -10.85 -23.1 -10.4 -23.55 -9.95 -24 -9.3 -24 L3.05 -24 3.15 -24 Q16.3 -23.45 17 -10.25 L17 2.1 17 2.25 Q16.1 9.75 13.95 14.1 15 14.35 15.8 15.15 16.8 16.15 17 17.45 L17 21 -17 21 -17 17.45 M18 32 L-18 32 Q-19.65 32 -20.85 30.8 -22 29.65 -22 28 L-22 25.45 -21.95 25.45 Q-21.8 24.15 -20.85 23.15 L-20.65 23 20.65 23 20.8 23.15 Q21.8 24.15 22 25.45 L22 28 Q22 29.65 20.8 30.8 19.65 32 18 32"/>
  </g>
</svg>
